assets/img/braze_icons/cloud-sun-03.svg

<svg fill="none" height="24" viewBox="0 0 24 24" width="24" xmlns="http://www.w3.org/2000/svg"><g fill="#801ed7"><path d="m10.5 3c-3.58985 0-6.5 2.91015-6.5 6.5 0 .44651.04487.8815.13004 1.3011.10987.5412-.23983 1.069-.78108 1.1789s-1.06908-.2398-1.17895-.7811c-.11159-.5497-.17001-1.118-.17001-1.6989 0-4.69442 3.80558-8.5 8.5-8.5 4.311 0 7.8709 3.20834 8.4252 7.36793.0729.54745-.3118 1.05037-.8592 1.12331-.5475.07294-1.0504-.31172-1.1233-.85917-.4236-3.17912-3.1475-5.63207-6.4427-5.63207z"/><path d="m12 9c-2.79792 0-5.21039 1.641-6.33119 4.0108-2.60702.1705-4.66881 2.3391-4.66881 4.9892 0 2.7614 2.23858 5 5 5h11.5c3.0376 0 5.5-2.4624 5.5-5.5 0-2.9541-2.329-5.3643-5.251-5.4945-1.2633-1.8149-3.3666-3.0055-5.749-3.0055z"/></g></svg>

<svg width="24" height="24" viewBox="0 0 24 24" fill="none" xmlns="http://www.w3.org/2000/svg">
<path d="M10.5 3C6.91015 3 4 5.91015 4 9.5C4 9.94651 4.04487 10.3815 4.13004 10.8011C4.23991 11.3423 3.89021 11.8701 3.34896 11.98C2.80771 12.0899 2.27988 11.7402 2.17001 11.1989C2.05842 10.6492 2 10.0809 2 9.5C2 4.80558 5.80558 1 10.5 1C14.811 1 18.3709 4.20834 18.9252 8.36793C18.9981 8.91538 18.6134 9.4183 18.066 9.49124C17.5185 9.56418 17.0156 9.17952 16.9427 8.63207C16.5191 5.45295 13.7952 3 10.5 3Z" fill="#801ED7"/>
<path d="M12 9C9.20208 9 6.78961 10.641 5.66881 13.0108C3.06179 13.1813 1 15.3499 1 18C1 20.7614 3.23858 23 6 23H17.5C20.5376 23 23 20.5376 23 17.5C23 14.5459 20.671 12.1357 17.749 12.0055C16.4857 10.1906 14.3824 9 12 9Z" fill="#801ED7"/>
</svg>
